X: 38352
T: Stairwell Time
R: slide
M: 12/8
K: Eminor
|:B,EB, FB,G ~E3 EDB,|EGB ABA Bgf dBA|
[1 B2b aB(b b2)g fBb|aAg efe dBG {A}GFD:|
[2 ~B3 ef/g/a bBg fg/a/b|aAg efe dBE FGA||
|:~B3 ceg bag agf|~B3 dfa {b}afg fdB|
[1 (2c'b ~g3 ~g2f ~d3|dDB ABA AGE FGA:|
[2 c'eb ~g3 gAf ~d3|dDB ABA AGF {G}FED||

